X: 1
T: Salmon Tails Up The Water
R: polka
M: 2/4
L: 1/8
K: Gmaj
GE DE|GG/G/ GA|Bd AB/A/|GE D>E|
GE DE|GG/G/ GA|Bd AB/A/|1 (G2 G2):|2 (G2 G>)A||
(3Bdd d>B|(3cee e>e|dB AB/A/|GE D2|
Bd d>B|ce e>f|gf ed|e/f/g BA|
(3Bdd d>B|(3cee e>e|dB AB/A/|GE D2|
GE DE|GG/G/ GA|Bd/d/ AB/A/|cc c2|


Tune 2903	Setting 21882

